public/images/line-icons/icon-downloadlog.svg

<svg xmlns="http://www.w3.org/2000/svg" viewBox="0 0 15 12.4"><style>.st0{fill:#f1f1f1;}</style><g id="downloadlog"><path class="st0" d="M5.1 11.3c-.4 0-.7-.3-.7-.7V.6c0-.3.3-.6.7-.6.4 0 .7.3.7.7v10c-.1.4-.4.6-.7.6z"/><path class="st0" d="M5.1 12.4c-.2 0-.3-.1-.5-.2L.2 7.8c-.3-.3-.3-.7 0-.9s.7-.3.9 0L5 10.8l4-3.9c.3-.3.7-.3.9 0s.3.7 0 .9l-4.4 4.4c-.1.1-.3.2-.4.2zM14.1 2.1H7.9c-.4 0-.7-.3-.7-.7s.3-.7.7-.7h6.2c.4 0 .7.3.7.7s-.3.7-.7.7zM14.3 5.3H7.9c-.4 0-.6-.3-.6-.7 0-.4.2-.6.6-.6h6.4c.4 0 .7.2.7.6 0 .4-.3.7-.7.7zM14.3 8.5h-2.4c-.4 0-.7-.3-.7-.7 0-.4.3-.7.7-.7h2.4c.4 0 .7.3.7.7 0 .4-.3.7-.7.7zM13 11.6H9.2c-.4 0-.7-.3-.7-.7s.3-.7.7-.7H13c.4 0 .7.3.7.7s-.4.7-.7.7z"/></g></svg>

<?xml version="1.0" encoding="utf-8"?>
<!-- Generator: Adobe Illustrator 19.1.0, SVG Export Plug-In . SVG Version: 6.00 Build 0)  -->
<svg version="1.1" id="Layer_1" xmlns="http://www.w3.org/2000/svg" xmlns:xlink="http://www.w3.org/1999/xlink" x="0px" y="0px"
	 viewBox="0 0 15 12.4" style="enable-background:new 0 0 15 12.4;" xml:space="preserve">
<style type="text/css">
	.st0{fill:#949899;}
</style>
<g id="downloadlog">
	<g>
		<path class="st0" d="M5.1,11.3c-0.4,0-0.7-0.3-0.7-0.7v-10C4.4,0.3,4.7,0,5.1,0c0.4,0,0.7,0.3,0.7,0.7v10
			C5.7,11.1,5.4,11.3,5.1,11.3z"/>
	</g>
	<g>
		<path class="st0" d="M5.1,12.4c-0.2,0-0.3-0.1-0.5-0.2L0.2,7.8c-0.3-0.3-0.3-0.7,0-0.9s0.7-0.3,0.9,0l3.9,3.9L9,6.9
			c0.3-0.3,0.7-0.3,0.9,0s0.3,0.7,0,0.9l-4.4,4.4C5.4,12.3,5.2,12.4,5.1,12.4z"/>
	</g>
	<g>
		<path class="st0" d="M14.1,2.1H7.9c-0.4,0-0.7-0.3-0.7-0.7s0.3-0.7,0.7-0.7h6.2c0.4,0,0.7,0.3,0.7,0.7S14.5,2.1,14.1,2.1z"/>
	</g>
	<g>
		<path class="st0" d="M14.3,5.3H7.9C7.5,5.3,7.3,5,7.3,4.6C7.3,4.2,7.5,4,7.9,4h6.4C14.7,4,15,4.2,15,4.6C15,5,14.7,5.3,14.3,5.3z"
			/>
	</g>
	<g>
		<path class="st0" d="M14.3,8.5h-2.4c-0.4,0-0.7-0.3-0.7-0.7c0-0.4,0.3-0.7,0.7-0.7h2.4c0.4,0,0.7,0.3,0.7,0.7
			C15,8.2,14.7,8.5,14.3,8.5z"/>
	</g>
	<g>
		<path class="st0" d="M13,11.6H9.2c-0.4,0-0.7-0.3-0.7-0.7s0.3-0.7,0.7-0.7H13c0.4,0,0.7,0.3,0.7,0.7S13.3,11.6,13,11.6z"/>
	</g>
</g>
</svg>
